X:15
T:Of A' the Airts the Wind Can Blaw
C:arr. Carlo Minasi
M:C
L:1/8
B:Chappell's One Hundred Scotch Melodies
B:Arranged for the Concertina by Carlo Minasi
Q:"Andante  "1/4=110
Z:Peter Dunk 2012
K:C
!p!G|[cGE]>c[cAF]>c ([cGE]Gc[afc])|([gec]>e{e/}d>c) [c3A3](G/A/)|\
[cGE]>c[cAF]>c ([cGE]Gca)|([gec]>a[c'e][ec]) [g3B3][af]|
%
([ge]>ac'[ec]) ([ge]>[eG][dF][cE])|\
[dAF](d/e f/e/d/c/) {B/}[A3F3]G/A/|\
[cGE]>c[cAF]>c ([cGE]Gc[afc])|([gec]<e)([dBG]>e) [c3E3]||
%
G/F/|(E>G[cE]>G) ([AF]>[GE][cE][dG])|(eg) (f/e/d/c/) {B/}A3 (G/F/)|\
(E>G[cE]>G) ([AF]>[GE][cE][dG])|[ec]>f (g/a/b/c'/) [g3d3B3] (a/b/)|
%
(c'>bag) (a>gfe)|(d>e f/e/d/c/) {B/}A3 (G/A/)|\
[cGE]>c[cAF]>c ([cGE]Gc[afc])|([gec]>e)([dBG]>e) [c3E3]||

